X: 30400
T: Old Siege Of Valencia, The
R: jig
M: 6/8
K: Adorian
D|:E>AA A>Bc|B>AG e2f|g>fe d>cd|e>cA G>ED|
E>AA A>Bc|B>AG e2f|g>ed g>dB|1 A>BA A>GF:|2 A>BA A2d||
|:e>aa a>ga|b>ag a>gf|g>ag g>ed|e>aa g>ed|
e>aa a>ga|b>ag a>gf|g>ed g>dB|1 A>BA A2d:|2 A>BA A>GF||

